X: 15714
T: Golden Monocle, The
R: reel
M: 4/4
K: Dmixolydian
dcAG FADE|FD D/D/D FDAD|dcAG FADF|E/E/E cE dEce|
dcAG FADE|FAGF G/G/G FG|A/A/A AG AdcA|GFEG FAD2:|
c/c/c Gc ecdc|e/f/g fe fdd2|c/c/c Gc ecdc|AGFG Add2|
c/c/c Gc ecdc|e/f/g fe fagf|e2ed egfe|dcAG FAD2:|

